icons/contacts-line.svg

<svg xmlns="http://www.w3.org/2000/svg" width="24" height="24" fill="none"><g clip-path="url(#a)"><g><path fill="#121212" d="M19 7H24V9H19V7ZM17 12H24V14H17V12ZM20 17H24V19H20V17ZM2 22C2 19.8783 2.84285 17.8434 4.34315 16.3431C5.84344 14.8429 7.87827 14 10 14C12.1217 14 14.1566 14.8429 15.6569 16.3431C17.1571 17.8434 18 19.8783 18 22H16C16 20.4087 15.3679 18.8826 14.2426 17.7574C13.1174 16.6321 11.5913 16 10 16C8.4087 16 6.88258 16.6321 5.75736 17.7574C4.63214 18.8826 4 20.4087 4 22H2ZM10 13C6.685 13 4 10.315 4 7C4 3.685 6.685 1 10 1C13.315 1 16 3.685 16 7C16 10.315 13.315 13 10 13ZM10 11C12.21 11 14 9.21 14 7C14 4.79 12.21 3 10 3C7.79 3 6 4.79 6 7C6 9.21 7.79 11 10 11Z"/></g></g><defs><clipPath id="a"><rect width="24" height="24" fill="white"/></clipPath></defs></svg>

<svg width="24" height="24" fill="none" xmlns="http://www.w3.org/2000/svg"><g clip-path="url(#a)"><path d="M19 7h5v2h-5V7Zm-2 5h7v2h-7v-2Zm3 5h4v2h-4v-2ZM2 22a8 8 0 0 1 16 0h-2a6 6 0 1 0-12 0H2Zm8-9c-3.315 0-6-2.685-6-6s2.685-6 6-6 6 2.685 6 6-2.685 6-6 6Zm0-2c2.21 0 4-1.79 4-4s-1.79-4-4-4-4 1.79-4 4 1.79 4 4 4Z" /></g><defs><clipPath id="a"><path fill="#fff" d="M0 0h24v24H0z"/></clipPath></defs></svg>
